X:2525
T:Polska från Värmland
T:Svenska Folkdansar H4 nr 5
O:Värmland
B:Traditioner av Svenska Folkdansar Häfte 4, nr 5
R:Polska
Z:Nils L
M:3/4
L:1/8
K:Dm
d2 Dd Dd | e2 Ee Ee | {g/}fe/f/ gf ed | Td^c/d/ e/d/c/=B/ A2 | S
d2 Dd Dd | e2 Ee Ee | {g/}fe/f/ gf ed | ^c/d/e/c/ d2 D2 !fine! ]]
a2 Fa Fa | g2 Eg Eg | {g/}fe/f/ dafd | Td^c/d/ "^D.C. al Segno"e/c/e/c/ A2 ]]
(:musicend:)
(:music:)
